images/mfaktor.svg

<svg width="136" height="68" viewBox="0 0 136 68" fill="none" xmlns="http://www.w3.org/2000/svg">
<mask id="mask0_5_847" style="mask-type:luminance" maskUnits="userSpaceOnUse" x="32" y="13" width="72" height="42">
<path d="M103.824 13H32.1768V55H103.824V13Z" fill="white"/>
</mask>
<g mask="url(#mask0_5_847)">
<path d="M59.3671 55.0002C58.9382 54.8897 58.5072 54.7872 58.0805 54.6677C56.9494 54.3501 56.0683 53.6966 55.7868 52.543C55.3858 50.9003 56.2285 49.0141 57.896 48.4796C58.4435 48.3038 59.0332 48.228 59.6098 48.1806C60.2445 48.1282 60.8863 48.1502 61.5248 48.1611C61.8428 48.1663 61.9696 48.0665 61.923 47.7352C61.8284 47.0459 61.4264 46.6133 60.7117 46.6224C60.0105 46.6312 59.3098 46.7416 58.6098 46.8177C58.2459 46.8569 57.8832 46.9111 57.5223 46.9725C57.2573 47.0176 57.1087 46.9172 57.0526 46.6628C56.9552 46.2193 56.8247 45.7806 56.7748 45.3307C56.7561 45.1634 56.8869 44.8534 57.0128 44.8153C59.0537 44.2005 61.1179 43.8568 63.1843 44.6797C64.1116 45.049 64.6346 45.7818 64.7666 46.7635C64.8421 47.2966 64.8858 47.8337 64.8974 48.3719C64.9195 49.9624 64.9155 51.5534 64.9198 53.1445C64.9219 53.9214 64.8113 54.1386 64.0764 54.3753C63.4361 54.5816 62.7631 54.6862 62.1053 54.8392C61.8979 54.8876 61.693 54.9472 61.4868 55.0017L59.3671 55.0002ZM61.912 51.2811H61.9135C61.9135 50.9991 61.9368 50.7141 61.9019 50.436C61.8887 50.3302 61.7414 50.1552 61.6568 50.1568C60.9963 50.1689 60.3309 50.175 59.6787 50.2654C59.1662 50.3365 58.8111 50.8242 58.7817 51.328C58.7486 51.8905 58.9753 52.3155 59.5516 52.4502C60.065 52.5719 60.6217 52.5823 61.1513 52.5415C61.912 52.484 61.9089 52.4454 61.9108 51.6836C61.9123 51.5501 61.912 51.4156 61.912 51.2811Z" fill="black"/>
<path d="M89.8004 54.9999C89.4542 54.894 89.1068 54.7915 88.7619 54.682C87.1348 54.1648 86.247 52.9991 85.9649 51.3886C85.8178 50.5492 85.8117 49.6807 85.7973 48.8246C85.7667 46.7365 87.4084 44.7804 89.4717 44.3746C90.8123 44.1108 92.114 44.1312 93.3495 44.7883C94.6022 45.4551 95.282 46.5464 95.5246 47.8867C95.6744 48.7118 95.7198 49.5651 95.7185 50.4056C95.7158 52.4913 94.3139 54.2467 92.2803 54.7915C92.0242 54.86 91.7687 54.9302 91.5126 54.9999H89.8004ZM88.7689 49.5934C88.8388 50.0424 88.9052 50.492 88.9797 50.9405C89.1142 51.7478 89.7523 52.3882 90.4664 52.439C91.3971 52.505 92.1244 52.018 92.4001 51.1638C92.7466 50.0902 92.72 49.0154 92.3802 47.9555C92.1887 47.3574 91.8288 46.8527 91.1367 46.7605C90.3843 46.6601 89.7364 46.8701 89.3075 47.5418C88.9077 48.1672 88.8152 48.8651 88.7689 49.5934Z" fill="black"/>
<path d="M81.1512 54.9997C80.8477 54.8959 80.5437 54.7931 80.2408 54.6879C79.4749 54.4223 78.9369 53.924 78.8747 53.1038C78.7672 51.6822 78.7136 50.2557 78.6667 48.8305C78.6471 48.2391 78.6946 47.644 78.728 47.0523C78.7433 46.7816 78.6272 46.6928 78.3714 46.6955C78.0611 46.6989 77.7418 46.7223 77.4425 46.6608C76.8167 46.5327 77.0648 46.0025 77.0385 45.6289C77.0155 45.3086 76.9144 44.8988 77.456 44.8188C77.7075 44.7823 77.9425 44.6363 78.1937 44.5982C78.7111 44.5198 78.8466 44.1991 78.8438 43.74C78.8416 43.3899 78.8401 43.0331 78.9051 42.692C78.9406 42.5095 79.0843 42.2661 79.2421 42.2053C79.8453 41.9698 80.4714 41.7903 81.0933 41.6042C81.4365 41.5013 81.6405 41.6002 81.6356 42.0045C81.6282 42.664 81.658 43.3245 81.6451 43.984C81.6374 44.368 81.7722 44.5103 82.1723 44.489C82.7002 44.461 83.2323 44.482 83.7601 44.5194C83.8717 44.5271 84.0564 44.6831 84.0637 44.7814C84.0999 45.263 84.0898 45.7485 84.0913 46.2325C84.0913 46.554 83.9195 46.6888 83.6011 46.683C83.0849 46.6751 82.5681 46.6885 82.0519 46.6776C81.756 46.6712 81.6445 46.7859 81.6463 47.0849C81.6555 48.5147 81.642 49.9445 81.6494 51.3743C81.6531 52.1547 81.9637 52.4449 82.7608 52.4114C83.1254 52.3959 83.4869 52.3165 83.8514 52.2897C84.4271 52.2462 84.5141 52.2897 84.6455 52.8373C84.7451 53.2529 84.7772 53.6867 84.8112 54.115C84.8358 54.4217 84.6887 54.6298 84.36 54.6821C84.0392 54.7329 83.7185 54.7858 83.4008 54.8509C83.2191 54.8883 83.0433 54.9522 82.8647 55.003L81.1512 54.9997Z" fill="black"/>
<path d="M57.841 34.5302C58.17 34.0161 58.476 33.5457 58.7747 33.0699C61.4496 28.8144 64.1237 24.5581 66.7972 20.3011C68.0805 18.2586 69.3739 16.2219 70.6422 14.1702C71.0157 13.5658 71.5613 13.2323 72.2046 13.0246C72.6335 12.8858 73.4221 13.3562 73.6932 13.891C74.4417 15.3658 75.1872 16.8422 75.9296 18.3201C77.6498 21.7285 79.3703 25.1369 81.091 28.5453C82.5786 31.4987 84.0631 34.4537 85.5445 37.4105C85.7436 37.806 85.9675 38.1923 86.1412 38.5991C86.3149 39.0058 86.2175 39.2154 85.7773 39.233C84.7473 39.2738 83.7146 39.2677 82.6831 39.244C82.2597 39.234 81.9604 38.9626 81.7702 38.589C81.2825 37.6309 80.7959 36.6725 80.3104 35.7136C78.554 32.2477 76.7976 28.7818 75.0411 25.3158C74.0982 23.4579 73.1418 21.6071 72.204 19.7462C72.0407 19.4216 71.9261 19.4724 71.7681 19.7264C71.0048 20.9482 70.2403 22.17 69.4744 23.3919C67.7131 26.1988 65.9515 29.0063 64.1898 31.8144C62.8183 34.0078 61.4633 36.2116 60.0884 38.4019C59.8825 38.7296 59.6203 39.0317 59.3436 39.3048C58.9181 39.7253 58.3743 39.7916 57.8802 39.4995C57.2907 39.15 56.7356 38.7308 56.2109 38.2885C53.6543 36.1331 51.1134 33.9604 48.5658 31.7935C48.0821 31.3825 48.0144 31.3922 47.7197 31.9742C46.9489 33.4977 46.1946 35.0294 45.4254 36.5538C44.3293 38.7256 43.2197 40.8916 42.126 43.064C40.3767 46.5347 38.6305 50.0069 36.8873 53.4807C36.7809 53.6977 36.6628 53.9089 36.5338 54.1134C36.3092 54.4615 36.0044 54.6787 35.5627 54.6747C34.5983 54.6662 33.6326 54.6863 32.6695 54.6586C32.1686 54.6443 32.0745 54.5065 32.2767 54.0547C32.6943 53.1247 33.1446 52.2081 33.6032 51.2967C35.0296 48.462 36.4617 45.63 37.8995 42.8006C39.5091 39.6236 41.1195 36.4471 42.7307 33.2713C43.7074 31.3414 44.6736 29.4078 45.6524 27.4779C45.7813 27.2258 45.9347 26.9869 46.1104 26.7645C46.7277 25.9811 47.5334 25.8558 48.3115 26.4782C49.3682 27.3239 50.3905 28.2122 51.4219 29.089C53.4426 30.8066 55.4614 32.5266 57.4782 34.2491C57.5689 34.3276 57.6682 34.3972 57.841 34.5302Z" fill="#FF0000"/>
<path d="M70.4414 47.8448C70.5455 47.6903 70.6381 47.5266 70.7554 47.383C71.3191 46.6919 71.9146 46.025 72.4492 45.3144C72.887 44.7312 73.4182 44.4531 74.1535 44.4957C74.7355 44.5292 75.3216 44.493 75.9055 44.5064C76.0694 44.5103 76.2318 44.5806 76.5066 44.6481C76.195 45.0524 75.9551 45.3865 75.6917 45.7019C75.1032 46.408 74.4969 47.0983 73.9173 47.8123C73.8318 47.9179 73.7947 48.1469 73.8517 48.2686C74.5337 49.7431 75.2392 51.2073 75.9349 52.6764C76.1761 53.1861 76.4102 53.699 76.6371 54.2151C76.7713 54.5193 76.6536 54.6909 76.3258 54.6961C75.5651 54.7079 74.8042 54.7049 74.0435 54.7119C73.7145 54.7149 73.5184 54.5479 73.3928 54.2589C72.9388 53.2136 72.4804 52.17 72.0176 51.1279C71.9156 50.8986 71.7817 50.6832 71.6193 50.382C70.9947 51.0933 70.1761 51.5824 70.2214 52.6372C70.2438 53.1622 70.2383 53.6891 70.2352 54.2151C70.2334 54.5437 70.0934 54.7575 69.7236 54.753C69.1256 54.746 68.527 54.7557 67.9296 54.7335C67.3475 54.7119 67.2556 54.5954 67.2538 54.0283C67.2446 49.8873 67.2344 45.7464 67.2232 41.6054C67.2232 41.4165 67.2176 41.2275 67.2232 41.0389C67.2323 40.756 67.3843 40.5625 67.6658 40.5558C68.4127 40.5385 69.1602 40.5415 69.9074 40.5558C70.2337 40.5616 70.2349 40.8229 70.2352 41.0587C70.2364 42.2863 70.2364 43.5139 70.2352 44.7415C70.2352 45.6049 70.2352 46.4683 70.2374 47.3316C70.2374 47.4688 70.2591 47.6054 70.2711 47.7429L70.4414 47.8448Z" fill="black"/>
<path d="M45.4825 50.7651C45.435 49.3244 45.3367 47.9359 45.36 46.5511C45.379 45.4687 45.4739 44.3748 45.6731 43.3113C45.8964 42.119 47.0418 41.2167 48.3736 41.1793C50.5042 41.1185 52.638 41.1574 54.7702 41.1458C55.0505 41.1443 55.174 41.2715 55.1798 41.5264C55.1933 42.1044 55.2028 42.6846 55.2012 43.2635C55.2012 43.5409 55.0631 43.725 54.765 43.7502C54.4669 43.7755 54.1707 43.8166 53.8738 43.8144C52.5966 43.805 51.3197 43.7651 50.0444 43.7688C48.7691 43.7724 48.5203 44.0325 48.5151 45.2899C48.5151 45.5865 48.5325 45.8843 48.5114 46.1794C48.4897 46.4857 48.6324 46.5947 48.9152 46.5928C49.6354 46.588 50.355 46.5794 51.0756 46.5849C52.0253 46.5925 52.975 46.6202 53.9262 46.6223C54.2571 46.6223 54.4194 46.8003 54.4237 47.0808C54.4335 47.6448 54.413 48.2089 54.3624 48.7707C54.3514 48.8897 54.1694 49.0634 54.042 49.088C53.6956 49.1513 53.3437 49.1806 52.9915 49.1753C51.7823 49.168 50.5732 49.1263 49.3643 49.1291C48.5145 49.1312 48.5234 49.154 48.5243 49.9979C48.5243 51.3997 48.5053 52.8022 48.5148 54.204C48.5172 54.5481 48.3922 54.7136 48.0531 54.7099C47.2835 54.7023 46.5137 54.6986 45.7453 54.6621C45.6534 54.6579 45.4975 54.4611 45.496 54.3515C45.4758 53.1389 45.4825 51.926 45.4825 50.7651Z" fill="black"/>
<path d="M100.582 51.068C100.582 52.0649 100.577 53.0618 100.584 54.0588C100.588 54.4679 100.466 54.7232 99.9932 54.728C99.4384 54.7329 98.8839 54.8016 98.33 54.7965C97.7761 54.7913 97.6422 54.6626 97.5715 54.1147C97.5271 53.771 97.5335 53.4196 97.5347 53.0716C97.5378 52.1428 97.55 51.214 97.5601 50.285C97.5724 49.1271 97.5295 47.9647 97.6159 46.812C97.6983 45.7169 98.3554 44.9581 99.3756 44.5374C100.697 43.9923 102.069 43.9634 103.448 44.2454C103.607 44.2779 103.822 44.5657 103.822 44.7349C103.822 45.3631 103.756 45.9931 103.676 46.6173C103.665 46.7086 103.442 46.8303 103.312 46.8358C102.662 46.8695 102.01 46.8577 101.36 46.886C100.858 46.9079 100.62 47.0962 100.603 47.5969C100.569 48.6185 100.596 49.6418 100.598 50.6643C100.598 50.799 100.598 50.9337 100.598 51.0686L100.582 51.068Z" fill="black"/>
</g>
</svg>

<svg xmlns="http://www.w3.org/2000/svg" width="136" height="68" fill="none"><mask id="a" width="72" height="42" x="32" y="13" maskUnits="userSpaceOnUse" style="mask-type:luminance"><path fill="#fff" d="M103.824 13H32.177v42h71.647V13Z"/></mask><g mask="url(#a)"><path fill="#000" d="M59.367 55c-.429-.11-.86-.213-1.286-.332-1.132-.318-2.013-.971-2.294-2.125-.401-1.643.441-3.529 2.109-4.063.547-.176 1.137-.252 1.714-.3.635-.052 1.276-.03 1.915-.019.318.005.445-.095.398-.426-.095-.69-.497-1.122-1.211-1.113-.702.01-1.402.12-2.102.196-.364.039-.727.093-1.088.154-.265.046-.413-.055-.47-.31-.097-.443-.227-.881-.277-1.331-.019-.168.112-.478.238-.516 2.04-.614 4.105-.958 6.171-.135.928.369 1.45 1.102 1.583 2.084.075.533.119 1.07.13 1.608.022 1.59.018 3.181.023 4.773.002.776-.109.994-.844 1.23-.64.207-1.313.311-1.97.464-.208.049-.413.108-.62.163L59.368 55Zm2.545-3.719h.002c0-.282.023-.567-.012-.845-.013-.106-.16-.28-.245-.28-.66.013-1.326.019-1.978.11-.513.07-.868.558-.897 1.062-.033.563.193.987.77 1.122.513.122 1.07.132 1.6.091.76-.057.757-.096.759-.857l.001-.403ZM89.8 55c-.346-.106-.693-.209-1.038-.318-1.627-.517-2.515-1.683-2.797-3.293-.147-.84-.153-1.708-.168-2.564-.03-2.089 1.611-4.045 3.675-4.45 1.34-.264 2.642-.244 3.878.413 1.252.667 1.932 1.758 2.175 3.099.15.825.195 1.678.194 2.519-.003 2.085-1.405 3.84-3.439 4.386-.256.068-.511.138-.767.208H89.8Zm-1.031-5.407c.07.45.136.899.21 1.347.135.808.773 1.448 1.487 1.499.931.066 1.658-.421 1.934-1.275.347-1.074.32-2.149-.02-3.209-.191-.598-.551-1.102-1.243-1.194-.753-.1-1.4.11-1.83.78-.4.626-.492 1.324-.538 2.052ZM81.151 55c-.303-.104-.607-.207-.91-.312-.766-.266-1.304-.764-1.366-1.584a100.524 100.524 0 0 1-.208-4.273c-.02-.592.028-1.187.061-1.779.015-.27-.1-.36-.357-.356-.31.003-.63.026-.928-.035-.626-.128-.378-.659-.404-1.032-.023-.32-.125-.73.417-.81.251-.037.486-.183.738-.22.517-.08.653-.4.65-.859-.002-.35-.004-.707.061-1.048.036-.182.18-.426.337-.487.603-.235 1.23-.415 1.851-.6.343-.104.547-.005.543.4-.008.659.022 1.32.01 1.979-.009.384.126.526.526.505.528-.028 1.06-.007 1.588.03.112.008.296.164.304.262.036.482.026.968.027 1.452 0 .321-.171.456-.49.45-.516-.008-1.033.005-1.55-.005-.295-.007-.407.108-.405.407.01 1.43-.004 2.86.003 4.29.004.78.315 1.07 1.112 1.036.364-.015.726-.095 1.09-.121.576-.044.663 0 .794.547.1.416.132.85.166 1.278.025.307-.122.515-.451.567-.32.05-.641.104-.96.169-.18.037-.357.101-.535.152L81.15 55Z"/><path fill="red" d="M57.841 34.53c.329-.514.635-.984.934-1.46 2.675-4.256 5.349-8.512 8.022-12.769 1.284-2.042 2.577-4.08 3.845-6.13.374-.605.92-.939 1.563-1.146.428-.14 1.217.331 1.488.866a97974.192 97974.192 0 0 0 7.398 14.654c1.488 2.954 2.972 5.909 4.453 8.865.2.396.424.782.597 1.19.174.406.076.615-.364.633-1.03.04-2.062.035-3.094.011-.423-.01-.723-.281-.913-.655l-1.46-2.875-5.269-10.398c-.943-1.858-1.9-3.709-2.837-5.57-.163-.324-.278-.274-.436-.02a2897.4 2897.4 0 0 1-2.294 3.666l-5.284 8.422c-1.372 2.194-2.727 4.398-4.102 6.588-.206.328-.468.63-.744.903-.426.42-.97.487-1.464.194-.59-.349-1.144-.768-1.67-1.21-2.556-2.156-5.097-4.329-7.644-6.495-.484-.412-.552-.402-.846.18-.771 1.524-1.525 3.055-2.295 4.58-1.096 2.172-2.205 4.338-3.299 6.51-1.75 3.47-3.495 6.943-5.239 10.417a6.784 6.784 0 0 1-.353.632c-.225.349-.53.566-.971.562-.965-.009-1.93.011-2.894-.016-.5-.015-.594-.152-.392-.604.417-.93.868-1.847 1.326-2.758 1.427-2.835 2.859-5.667 4.297-8.496l4.83-9.53c.977-1.93 1.944-3.863 2.922-5.793.13-.252.283-.491.458-.713.618-.784 1.423-.91 2.202-.287 1.056.846 2.079 1.734 3.11 2.611 2.02 1.718 4.04 3.438 6.056 5.16.09.079.19.148.363.281Z"/><path fill="#000" d="M70.441 47.845c.105-.155.197-.318.314-.462.564-.691 1.16-1.358 1.694-2.069.438-.583.97-.86 1.704-.818.582.033 1.169-.003 1.752.01.164.004.327.075.602.142-.312.404-.552.738-.815 1.054-.589.706-1.195 1.396-1.775 2.11-.085.106-.122.335-.065.457.682 1.474 1.387 2.938 2.083 4.407.241.51.475 1.023.702 1.54.134.303.017.475-.311.48-.76.012-1.522.009-2.282.016-.33.003-.526-.164-.651-.453a417.183 417.183 0 0 0-1.375-3.131c-.102-.23-.236-.445-.399-.746-.624.711-1.443 1.2-1.398 2.255.023.525.017 1.052.014 1.578-.002.329-.142.542-.511.538-.598-.007-1.197.003-1.794-.02-.583-.021-.674-.138-.676-.705l-.03-12.423c0-.188-.006-.377 0-.566.008-.283.16-.477.442-.483a53.01 53.01 0 0 1 2.241 0c.327.006.328.267.328.503v3.683c0 .863 0 1.726.002 2.59 0 .137.022.273.034.41l.17.103ZM45.483 50.765c-.048-1.44-.146-2.83-.123-4.214.019-1.082.114-2.176.313-3.24.223-1.192 1.369-2.094 2.7-2.132 2.131-.06 4.265-.022 6.397-.033.28-.002.404.126.41.38.013.578.023 1.159.021 1.737 0 .278-.138.462-.436.487-.298.026-.594.067-.891.064-1.277-.009-2.554-.049-3.83-.045-1.275.003-1.524.264-1.529 1.52 0 .297.017.595-.004.89-.021.307.121.416.404.414.72-.005 1.44-.014 2.16-.008.95.008 1.9.035 2.851.037.331 0 .493.178.498.459.01.564-.011 1.128-.062 1.69-.01.119-.193.292-.32.317a5.393 5.393 0 0 1-1.05.087c-1.21-.007-2.419-.049-3.628-.046-.85.002-.84.025-.84.869 0 1.402-.019 2.804-.01 4.206.003.344-.122.51-.46.506-.77-.008-1.54-.011-2.309-.048-.092-.004-.247-.2-.249-.31-.02-1.213-.014-2.426-.014-3.587ZM100.582 51.068c0 .997-.005 1.994.002 2.99.004.41-.118.665-.59.67-.556.005-1.11.074-1.664.069-.554-.006-.688-.134-.758-.682-.045-.344-.038-.695-.037-1.043.003-.93.015-1.858.025-2.787.012-1.158-.03-2.32.056-3.473.082-1.095.74-1.854 1.76-2.275 1.321-.545 2.693-.574 4.072-.292.159.033.374.32.374.49 0 .628-.066 1.258-.146 1.882-.011.092-.234.213-.364.219-.65.034-1.302.022-1.952.05-.502.022-.74.21-.757.71-.034 1.023-.007 2.046-.005 3.068v.405l-.016-.001Z"/></g></svg>
